Papirus/64x64/mimetypes/application-x-gcstar.svg

<?xml version="1.0" encoding="UTF-8" standalone="no"?>
<svg
   id="_图层_1"
   data-name="图层_1"
   version="1.1"
   viewBox="0 0 128 128"
   width="64"
   height="64"
   sodipodi:docname="application-x-gcstar.svg"
   xml:space="preserve"
   inkscape:version="1.4 (e7c3feb100, 2024-10-09)"
   xmlns:inkscape="http://www.inkscape.org/namespaces/inkscape"
   xmlns:sodipodi="http://sodipodi.sourceforge.net/DTD/sodipodi-0.dtd"
   xmlns="http://www.w3.org/2000/svg"
   xmlns:svg="http://www.w3.org/2000/svg"><sodipodi:namedview
     id="namedview3"
     pagecolor="#505050"
     bordercolor="#eeeeee"
     borderopacity="1"
     inkscape:showpageshadow="0"
     inkscape:pageopacity="0"
     inkscape:pagecheckerboard="0"
     inkscape:deskcolor="#505050"
     inkscape:zoom="10.6875"
     inkscape:cx="32"
     inkscape:cy="26.292398"
     inkscape:window-width="1920"
     inkscape:window-height="939"
     inkscape:window-x="0"
     inkscape:window-y="34"
     inkscape:window-maximized="1"
     inkscape:current-layer="_图层_1"
     showguides="true"><sodipodi:guide
       position="7.6134526,83.439664"
       orientation="1,0"
       id="guide7"
       inkscape:locked="false" /><sodipodi:guide
       position="120.24109,71.856006"
       orientation="1,0"
       id="guide8"
       inkscape:locked="false" /></sodipodi:namedview><!-- Generator: Adobe Illustrator 29.0.1, SVG Export Plug-In . SVG Version: 2.1.0 Build 192)  --><defs
     id="defs1"><style
       id="style1">
      .st0 {
        fill: #0071e9;
      }

      .st1 {
        fill: #fff;
      }

      .st2 {
        fill: #5aaaff;
        isolation: isolate;
        opacity: .5;
      }
    </style><style
       id="style1-6">
      .st0 {
        fill: #0071e9;
      }

      .st1 {
        fill: #fff;
      }

      .st2 {
        fill: #5aaaff;
        isolation: isolate;
        opacity: .5;
      }
    </style><style
       id="style1-8">
      .st0 {
        fill: #0071e9;
      }

      .st1 {
        fill: #fff;
      }

      .st2 {
        fill: #5aaaff;
        isolation: isolate;
        opacity: .5;
      }
    </style></defs><path
     class="st0"
     d="M18.2,0c-5.6,0-10.2,4.6-10.2,10.2v107.6c0,5.6,4.6,10.2,10.2,10.2h91.6c5.6,0,10.2-4.6,10.2-10.2V40.6L82.2,0H18.2Z"
     id="path1"
     style="fill:#1d81e8;fill-opacity:1" /><path
     class="st2"
     d="m 82.761404,2.619883 v 29.2 c 0,3.2 2.145542,11.6 11.89801,11.6 h 24.966316 z"
     id="path2"
     style="fill:#1767ba;fill-opacity:1;stroke-width:0.987546" /><path
     class="st2"
     d="M 82.116964,0.02339171 V 29.223392 c 0,3.2 2.2,11.6 12.2,11.6 h 25.599996 z"
     id="path2-3"
     style="opacity:1;isolation:isolate;fill:#4d9cec;fill-opacity:1" /><g
     id="g10"
     transform="matrix(2.5443913,0,0,2.2856263,-17.420521,-8.9027393)"><path
       style="opacity:0.2"
       d="m 32,27 c -7.731986,0 -14,6.268014 -14,14 0,7.731986 6.268014,14 14,14 7.731986,0 14,-6.268014 14,-14 0,-7.731986 -6.268014,-14 -14,-14 z m -5.886718,10 c 1.65427,-0.03844 3.209304,1.271512 3.71875,3.128906 0.591676,2.155988 -0.421978,4.292702 -2.26172,4.773438 -1.839416,0.48296 -3.810678,-0.874918 -4.402344,-3.03125 -0.590188,-2.155034 0.423164,-4.288642 2.26172,-4.769532 0.22217,-0.0594 0.45143,-0.09518 0.683594,-0.10156 z m 11.773436,0 c 0.232164,0.0064 0.461424,0.04216 0.683594,0.10156 1.838556,0.48089 2.851908,2.614498 2.26172,4.769532 -0.591666,2.156332 -2.562928,3.51421 -4.402344,3.03125 -1.839742,-0.480736 -2.853396,-2.61745 -2.26172,-4.773438 C 34.677414,38.271512 36.232448,36.96156 37.886718,37 Z"
       id="path5" /><path
       style="fill:#ffc05b"
       d="m 32,26 c -7.731986,0 -14,6.268014 -14,14 0,7.731986 6.268014,14 14,14 7.731986,0 14,-6.268014 14,-14 0,-7.731986 -6.268014,-14 -14,-14 z m -5.886718,10 c 1.65427,-0.03844 3.209304,1.271512 3.71875,3.128906 0.591676,2.155988 -0.421978,4.292702 -2.26172,4.773438 -1.839416,0.48296 -3.810678,-0.874918 -4.402344,-3.03125 -0.590188,-2.155034 0.423164,-4.288642 2.26172,-4.769532 0.22217,-0.0594 0.45143,-0.09518 0.683594,-0.10156 z m 11.773436,0 c 0.232164,0.0064 0.461424,0.04216 0.683594,0.10156 1.838556,0.48089 2.851908,2.614498 2.26172,4.769532 -0.591666,2.156332 -2.562928,3.51421 -4.402344,3.03125 -1.839742,-0.480736 -2.853396,-2.61745 -2.26172,-4.773438 C 34.677414,37.271512 36.232448,35.96156 37.886718,36 Z"
       id="path6" /><path
       style="opacity:0.2;fill:#ffffff"
       d="m 32,26 c -7.731986,0 -14,6.268014 -14,14 0,0.168337 0.0157,0.332437 0.02539,0.498047 C 18.291823,33.000507 24.437449,27 32,27 39.562551,27 45.708177,33.000507 45.974609,40.498047 45.9843,40.332437 46,40.168337 46,40 46,32.268014 39.731986,26 32,26 Z m -8.875,14.636719 c -0.113097,0.472874 -0.142866,0.981321 -0.08789,1.501953 0.02032,-0.170421 0.04889,-0.338882 0.08789,-0.501953 0.01726,0.07832 0.02149,0.155935 0.04297,0.234375 0.591666,2.156332 2.562928,3.51421 4.402343,3.03125 1.17639,-0.307398 2.011464,-1.293688 2.308594,-2.527344 0.03971,0.181869 0.05439,0.361287 0.07227,0.541016 0.06099,-0.493106 0.04277,-1.014209 -0.07227,-1.541016 -0.29713,1.233656 -1.132204,2.219946 -2.308594,2.527344 -1.839415,0.48296 -3.810677,-0.874918 -4.402343,-3.03125 -0.02148,-0.07844 -0.02571,-0.156059 -0.04297,-0.234375 z m 17.75,0 c -0.0172,0.0783 -0.02149,0.155939 -0.04297,0.234375 -0.591666,2.156332 -2.562928,3.51421 -4.402343,3.03125 -1.17639,-0.307398 -2.011464,-1.293688 -2.308594,-2.527344 -0.115037,0.526807 -0.133252,1.04791 -0.07227,1.541016 0.01788,-0.179729 0.03255,-0.359147 0.07227,-0.541016 0.29713,1.233656 1.132204,2.219946 2.308594,2.527344 1.839415,0.48296 3.810677,-0.874918 4.402343,-3.03125 0.02148,-0.07844 0.02577,-0.156075 0.04297,-0.234375 0.03901,0.163071 0.06757,0.331532 0.08789,0.501953 0.05498,-0.520632 0.02522,-1.029079 -0.08789,-1.501953 z"
       id="path8" /></g></svg>

<svg xmlns="http://www.w3.org/2000/svg" width="64" height="64" version="1.1">
 <path style="opacity:0.2" d="M 12.75,5 C 11.2265,5 10,6.2488 10,7.8 v 50.4 c 0,1.5512 1.2265,2.8 2.75,2.8 h 38.5 C 52.7735,61 54,59.7512 54,58.2 V 21 L 40.25,19 38,5 Z"/>
 <path style="fill:#1d81e8" d="M 12.75,4 C 11.2265,4 10,5.2488 10,6.8 v 50.4 c 0,1.5512 1.2265,2.8 2.75,2.8 h 38.5 C 52.7735,60 54,58.7512 54,57.2 V 20 L 40.25,18 38,4 Z"/>
 <path style="opacity:0.2" d="M 54,21 38,5 V 18.333333 C 38,19.810666 39.189334,21 40.666666,21 Z"/>
 <path style="fill:#4d9cec" d="M 54,20 38,4 V 17.333333 C 38,18.810667 39.189334,20 40.666666,20 Z"/>
 <path style="opacity:0.2" d="m 32,27 c -7.731986,0 -14,6.268014 -14,14 0,7.731986 6.268014,14 14,14 7.731986,0 14,-6.268014 14,-14 0,-7.731986 -6.268014,-14 -14,-14 z m -5.886718,10 c 1.65427,-0.03844 3.209304,1.271512 3.71875,3.128906 0.591676,2.155988 -0.421978,4.292702 -2.26172,4.773438 -1.839416,0.48296 -3.810678,-0.874918 -4.402344,-3.03125 -0.590188,-2.155034 0.423164,-4.288642 2.26172,-4.769532 0.22217,-0.0594 0.45143,-0.09518 0.683594,-0.10156 z m 11.773436,0 c 0.232164,0.0064 0.461424,0.04216 0.683594,0.10156 1.838556,0.48089 2.851908,2.614498 2.26172,4.769532 -0.591666,2.156332 -2.562928,3.51421 -4.402344,3.03125 -1.839742,-0.480736 -2.853396,-2.61745 -2.26172,-4.773438 C 34.677414,38.271512 36.232448,36.96156 37.886718,37 Z"/>
 <path style="fill:#ffc05b" d="m 32,26 c -7.731986,0 -14,6.268014 -14,14 0,7.731986 6.268014,14 14,14 7.731986,0 14,-6.268014 14,-14 0,-7.731986 -6.268014,-14 -14,-14 z m -5.886718,10 c 1.65427,-0.03844 3.209304,1.271512 3.71875,3.128906 0.591676,2.155988 -0.421978,4.292702 -2.26172,4.773438 -1.839416,0.48296 -3.810678,-0.874918 -4.402344,-3.03125 -0.590188,-2.155034 0.423164,-4.288642 2.26172,-4.769532 0.22217,-0.0594 0.45143,-0.09518 0.683594,-0.10156 z m 11.773436,0 c 0.232164,0.0064 0.461424,0.04216 0.683594,0.10156 1.838556,0.48089 2.851908,2.614498 2.26172,4.769532 -0.591666,2.156332 -2.562928,3.51421 -4.402344,3.03125 -1.839742,-0.480736 -2.853396,-2.61745 -2.26172,-4.773438 C 34.677414,37.271512 36.232448,35.96156 37.886718,36 Z"/>
 <path style="opacity:0.2;fill:#ffffff" d="M 12.75 4 C 11.2265 4 10 5.2495812 10 6.8007812 L 10 7.8007812 C 10 6.2495812 11.2265 5 12.75 5 L 38 5 L 38 4 L 12.75 4 z"/>
 <path style="opacity:0.2;fill:#ffffff" d="M 32 26 C 24.268014 26 18 32.268014 18 40 C 18 40.168337 18.0157 40.332437 18.025391 40.498047 C 18.291823 33.000507 24.437449 27 32 27 C 39.562551 27 45.708177 33.000507 45.974609 40.498047 C 45.9843 40.332437 46 40.168337 46 40 C 46 32.268014 39.731986 26 32 26 z M 23.125 40.636719 C 23.011903 41.109593 22.982134 41.61804 23.037109 42.138672 C 23.057432 41.968251 23.085998 41.79979 23.125 41.636719 C 23.14226 41.715035 23.146489 41.792654 23.167969 41.871094 C 23.759635 44.027426 25.730897 45.385304 27.570312 44.902344 C 28.746702 44.594946 29.581776 43.608656 29.878906 42.375 C 29.91862 42.556869 29.933293 42.736287 29.951172 42.916016 C 30.012158 42.42291 29.993943 41.901807 29.878906 41.375 C 29.581776 42.608656 28.746702 43.594946 27.570312 43.902344 C 25.730897 44.385304 23.759635 43.027426 23.167969 40.871094 C 23.146489 40.792654 23.14226 40.715035 23.125 40.636719 z M 40.875 40.636719 C 40.8578 40.715019 40.853511 40.792658 40.832031 40.871094 C 40.240365 43.027426 38.269103 44.385304 36.429688 43.902344 C 35.253298 43.594946 34.418224 42.608656 34.121094 41.375 C 34.006057 41.901807 33.987842 42.42291 34.048828 42.916016 C 34.066707 42.736287 34.08138 42.556869 34.121094 42.375 C 34.418224 43.608656 35.253298 44.594946 36.429688 44.902344 C 38.269103 45.385304 40.240365 44.027426 40.832031 41.871094 C 40.853511 41.792658 40.8578 41.715019 40.875 41.636719 C 40.914005 41.79979 40.942567 41.968251 40.962891 42.138672 C 41.017869 41.61804 40.988107 41.109593 40.875 40.636719 z"/>
</svg>
